X:1
T:Serve bone et fidelis - Bai
T:James Gibb editions
T:#
%%score [ 1 2 3 4 ]
L:1/8
Q:1/4=200
M:none
K:C
V:1 treble nm="Soprano" snm="S"
V:2 treble nm="Alto" snm="A"
V:3 treble-8 nm="Tenor" snm="T"
V:4 bass nm="Bass" snm="B"
V:1
"^Serve bone et fidelis""^Tommaso Bai\n(1636-1714)" d12 B4 | d4 e4 d4 c4 | (d6 c2 B2 A2 G4- | %3
w: Ser- ve|bo- ne et fi-|de\- * * * *|
 G4 c6 B2 A4 | B4 c8 B4 | A8) G4 B4- | B4 c4 B4 A4 | B4 d4 B4 A4 | z16 | z16 | d8 B8 | (d8 e8) | %12
w: ||* lis, ser\-|* ve bo- ne|et fi- de- lis,|||ser- ve|bo\- *|
 d8 z4 c4- | c4 B4 (c6 B2 | A2 G2 A6 B2 c2 A2 | B4 c8 B4) | c8 z8 | z4 c8 B4 | c8 C8 | z16 | %20
w: ne et|* fi- de\- *|||lis,|et fi-|de- lis,||
 z8 z4 c4- | c4 G4 (A8 | B4 c8 B4) | c8 z8 | z16 | z16 | z4 d4 B4 d4 | e6 d2 c4 (A2 B2 | %28
w: et|* fi- de\-||lis,|||in- tra in|gau- di- um Do\- *|
 c2 A2 d6) c2 B4 | A8 G8 | z16 | z16 | z16 | z4 G4 E4 e4 | e16- | e16 | e16 | e8 c8 | c16- | c16 | %40
w: * * * mi- ni|tu- i,||||in- tra in|gau\-|||* di-|um||
 d16 | e16 | d16- | d8 d8 | c16 | (B16 | A16) | G16- | G16 | G16 | G16 |[Q:1/4=194] G16 | %52
w: Do\-|||* mi-|ni,|tu\-||i.|||||
[Q:1/4=184] G16 |[Q:1/4=174] G16 |[Q:1/4=170] !fermata!G16 |] %55
w: |||
V:2
 z8 G8- | G4 E4 G4 A4 | G4 ^F4 (G6 =F2 | E2 D2 C4 F6 E2 | D4 E4 ^F4 G4- | G4 ^F4) G8 | z4 G8 E4 | %7
w: Ser\-|* ve bo- ne|et fi- de\- *|||* * lis,|ser- ve|
 G4 A4 G4 ^F4 | G4 D4 G6 =F2 | (E4 D4 E2 ^F2 G4- | G4 ^F4) G8 | z16 | z4 G8 ^F4 | %13
w: bo- ne et fi-|de- lis, et fi-|de\- * * * *|* * lis,||ser- ve|
 (G6 =F2 E2 F2 G4) | C4 F8 (E2 F2) | G16 | G4 E4 ^F4 (G4- | G4 ^F4) G8 | z8 E8 | C8 (E8 | F8) E8- | %21
w: bo\- * * * *|ne et fi\- *|de-|lis, et fi- de\-|* * lis,|ser-|ve bo\-|* ne|
 E8 (C8 | D4) E4 F8 | E8 z8 | z16 | z16 | z8 z4 G4 | E4 G4 A6 G2 | F4 (D4 E2) ^F2 G4- | %29
w: * et|* fi- de-|lis,|||in-|tra in gau- di-|um Do\- * mi- ni|
 G4 ^F4 G4 G4 | E4 C4 F6 E2 | D4 G6 F2 E4 | (E4 D2 C2 D4 E4) | D8 z4 C4 | A,4 E4 (^G2 A2 B2 G2 | %35
w: * tu- i, in-|tra in gau- di-|um Do- mi- ni|tu\- * * * *|i, in-|tra in gau\- * * *|
 A2 =G2 E2 F2 G6) G2 | C4 C4 A,4 ^G,4 | (C2 B,A, G,2 G2 A6) A2 | G8 F4 E4 | E4 F4 z4 E4 | %40
w: * * * * * di-|um, in- tra in|gau\- * * * * * di-|um, in- tra,|in- tra, in-|
 F4 A4 A4 G4 | G16 | z4 D4 B,4 ^F4 | G4 ^F4 G8 | E12 E4 | E4 D6 D2 G4 | (^F4 G8 F4) | G8 z4 G4 | %48
w: tra in gau- di-|um,|in- tra in|gau- di- um|Do- mi-|ni, Do- mi- ni|tu\- * *|i, in-|
 E4 G4 (D2 C2 B,2 A,2 | B,4 C2 D2 E4 G4 | E4) D4 D4 (G4- | G2 F2 E2 D2 E4) D4 | %52
w: tra in gau\- * * *||* di- um Do\-|* * * * * mi-|
 E4 (G2 F2 E2 D2 E4- | E4 D2 C2 D8) | !fermata!D16 |] %55
w: ni tu\- * * * *||i.|
V:3
 z16 | z16 | z16 | z16 | z16 | d12 B4 | d4 e4 d4 c4 | d4 A4 z4 (d4- | d2 c2 B2 A2) G4 c4 | %9
w: |||||Ser- ve|bo- ne et fi-|de- lis, et|* * * * * fi-|
 (c4 d4 c2 B2 B2 AG | A8) G8 | B8 G8 | (B8 c8) | d8 z8 | z4 c8 c4 | (d4 c4 d8 | e8) d8 | z8 G8 | %18
w: de\- * * * * * *|* lis,|ser- ve|bo\- *|ne|et fi-|de\- * *|* lis,|ser-|
 E8 (G8 | A8) G4 c4- | c4 B4 c8 | G8 z8 | z16 | z4 c4 A4 c4 | d6 c2 B4 (G2 A2 | B2 G2 c6) c2 B4 | %26
w: ve bo\-|* ne et|* fi- de-|lis,||in- tra in|gau- di- um Do\- *|* * * mi- ni|
 A8 G8 | z16 | z16 | z4 d4 B4 G4 | c6 B2 A4 d4- | d2 c2 (B4 e6 d2 | c2 B2 A4 B4 c4- | c4 B4) c8 | %34
w: tu- i,|||in- tra in|gau- di- um Do-|mi- ni tu\- * *||* * i,|
 z4 c4 B4 ^G4 | (c4 B2 A2 =G2 F2 E2 G2 | A2 B2 c8 B4 | A4 e4 f6) f2 | e4 c4 A4 G4 | A6 A2 G4 A4 | %40
w: in- tra in|gau\- * * * * * *||* * * di-|um, in- tra in|gau- di- um, in|
 (A6 G2 A4) B4 | c4 G4 (E2 F2 G2 A2 | B4) A4 G4 z4 | z4 A4 B4 B4 | (A2 B2 c2 B2 A4) A4 | %45
w: gau\- * * di-|um, in gau\- * * *|* di- um,|in- tra in|gau\- * * * * di-|
 G8 B3 B d4 | (d4 e4) d4 d4 | B4 d4 (e2 d2 c2 B2 | c6) c2 B4 d4 | (e6 d2 c4) d4 | c4 B8 c4 | %51
w: um Do- mi- ni|tu\- * i, in-|tra in gau\- * * *|* di- um, in|gau\- * * di-|um Do- mi-|
 c4 c6 c2 B4 | (c4 d4 c8- | c4 B2 A2 B8) | !fermata!B16 |] %55
w: ni, Do- mi- ni|tu\- * *||i.|
V:4
 z16 | z16 | z16 | z16 | z16 | z8 G,8- | G,4 E,4 G,4 A,4 | G,4 ^F,4 G,4 D,4 | %8
w: |||||Ser\-|* ve bo- ne|et fi- de- lis,|
 (G,6 =F,2 E,2 D,2 C,4- | C,4) B,,4 (C,2 D,2 E,4 | D,8) G,,8 | G,8 E,8 | (G,8 A,8) | G,8 C,4 E,4 | %14
w: et * * * *|* fi- de\- * *|* lis,|ser- ve|bo\- *|ne et fi-|
 (F,6 E,2 F,2 G,2 A,4 | G,8 G,,8) | C,4 C,8 B,,4 | (A,,8 G,,8) | C,12 C,4 | A,,8 (C,8 | D,8) C,8 | %21
w: de\- * * * *||lis, et fi-|de\- *|lis, ser-|ve bo\-|* ne|
 C,4 E,4 (F,6 E,2 | D,4 C,4 D,8) | C,8 F,8 | D,4 F,4 G,6 F,2 | E,4 E,4 ^F,4 G,4- | G,4 ^F,4 G,8 | %27
w: et fi- de\- *||lis, in-|tra in gau- di-|um Do- mi- ni|* tu- i,|
 z16 | z16 | z8 G,4 E,4 | C,4 F,6 E,2 D,4 | G,6 F,2 E,8 | (A,8 G,8- | G,8) C,8 | z4 A,4 ^G,4 E,4 | %35
w: ||in- tra|in gau- di- um|Do- mi- ni|tu\- *|* i,|in- tra in|
 (A,4 =G,2 F,2 E,2 D,2 C,2 B,,2 | A,,6 B,,2 C,4) E,4 | A,,4 C,4 F,6 F,2 | C,8 F,4 C,4 | %39
w: gau\- * * * * * *|* * * di-|um, in gau- di-|um, in- tra,|
 z4 F,4 E,4 A,4 | (D,6 E,2 F,4 G,4 | C,4 G,4 C,2 D,2 E,2 F,2 | G,4) ^F,4 G,4 D,4 | %43
w: in- tra in|gau\- * * *||* di- um, in-|
 B,,4 D,4 (G,,2 A,,2 B,,2 G,,2 | A,,6 B,,2 C,4) A,,4 | E,4 G,6 G,2 B,,4 | (D,4 C,4 D,8) | %47
w: tra in gau\- * * *|* * * di-|um Do- mi- ni|tu\- * *|
 G,,4 G,4 E,4 G,4 | (C,2 D,2 E,2 F,2 G,6 F,2 | E,2 D,2 C,2 B,,2 C,4) B,,4 | E,4 (G,6 F,2 E,2 D,2 | %51
w: i, in- tra in|gau\- * * * * *|* * * * * di-|um Do\- * * *|
 E,2 D,2 C,2 B,,2 C,3) C, G,,4 | (C,4 B,,4 C,8) | G,,16- | !fermata!G,,16 |] %55
w: * * * * * mi- ni|tu\- * *|i.||

